X:1755
T:Mrs. O'Sullivan's Jig
M:6/8
L:1/8
R:jig
D:Slide: Harmonic Motion
Z:Devin McCabe
K:C
E3 GED|EGG c2B|A2A AGA|cd~e- e2d|
!cde g2a|ged c3|eaa e/2g/2e d|c2~A- A2G:|
!e2g ged|egg g2a|e2a ~a3|bag ~a3|
!cde g2a|ged c3|eaa e/2g/2e d|c2~A- A2G|
!e2g ged|egg gc'b|~a3 aga|bag a3|
!cde g2a|ged c3|eaa e/2g/2e d|c2~A- A2G||
